X:20
%%NRChange 2026-04-16
T:F\/orste Brudestykke
O:Fan\/o, Denmark
L:1/16
M:2/4
K:A
|: "A5"e2ed c2cd | edcB A2A2 | "D"f2fe c2d2 | "E"e4 e4 :|\
K:G
|
K:G
|: "A5"e2e2 a2a2 | "Em"g4 gfef | g2f2 e2d2 | "Am/F"c4 cBcd | "A5"e2e2 A2AB | "F"c2cA "G"B2G2 | "A5"B2A2 A4 :|

